!!!COM: Aaron Copland
!!!OTL: [T723_Cop-w41p51m1h71m1-6]
**kern	**dynam	**kern	**dynam	**kern	**dynam	**kern	**dynam	**kern	**dynam	**kern	**dynam	**kern	**dynam	**kern	**dynam
*grp:A	*grp:A	*grp:A	*grp:A	*grp:A	*grp:A	*grp:B	*grp:B	*grp:B	*grp:B	*grp:B	*grp:B	*grp:B	*grp:B	*grp:A	*grp:A
*part8	*part 8	*part7	*part 8	*part6	*part 8	*part5	*part 8	*part4	*part 8	*part3	*part 8	*part2	*part 8	*part1	*part 8
*staff8	*staff 8	*staff7	*staff 8	*staff6	*staff 8	*staff5	*staff 8	*staff4	*staff 8	*staff3	*staff 8	*staff2	*staff 8	*staff1	*staff 8
*I"Contrabass	*	*I"Violoncello	*	*I"Viola	*	*I"Violin II	*	*I"Violin I	*	*I"Percussion	*	*I"Trombone	*	*I"Horn 1 in F	*
*I'Cb.	*	*I'Vc.	*	*I'Vla.	*	*I'Vln. II	*	*I'Vln. I	*	*I'Perc.	*	*I'Tbn.	*	*I'Hn.	*
*	*	*	*	*	*	*	*	*	*	*stria4	*	*	*	*	*
*clefF4	*	*clefF4	*	*clefC3	*	*clefG2	*	*clefG2	*	*clefX	*	*clefF4	*	*clefG2	*
*ITrd7c12	*	*	*	*	*	*	*	*	*	*	*	*	*	*ITrd4c7	*
*k[f#c#g#d#]	*	*k[f#c#g#d#]	*	*k[f#c#g#d#]	*	*k[f#c#g#d#]	*	*k[f#c#g#d#]	*	*k[]	*	*k[f#c#g#d#]	*	*k[b-]	*
*E:	*	*E:	*	*E:	*	*E:	*	*E:	*	*C:	*	*E:	*	*	*
*M2/4	*	*M2/4	*	*M2/4	*	*M2/4	*	*M2/4	*	*M2/4	*	*M2/4	*	*M2/4	*
=1	=1	=1	=1	=1	=1	=1	=1	=1	=1	=1	=1	=1	=1	=1	=1
!	!	!	!	!	!	!	!	!	!	!	!	!	!	!LO:TX:t=[[quarter]=144]	!
!LO:TX:b:t=[secco]	!LO:DY:ed=brack	!LO:TX:b:t=[secco]	!LO:DY:ed=brack	!LO:TX:b:t=[secco]	!LO:DY:ed=brack	!LO:TX:b:t=[secco]	!LO:DY:ed=brack	!LO:TX:b:t=[secco]	!LO:DY:ed=brack	!LO:TX:b:t=[secco]	!LO:DY:ed=brack	!LO:TX:b:t=[secco]	!LO:DY:ed=brack	!LO:TX:b:t=[secco]	!LO:DY:ed=brack
!LO:TX:a:t=[at the frog]	!	!LO:TX:a:t=[at the frog]	!	!LO:TX:a:t=[at the frog]	!	!LO:TX:a:t=[at the frog]	!	!LO:TX:a:t=[at the frog]	!	!LO:TX:a:t=4 Temple Blocks	!	!LO:TX:a:t=[con sord.]	!	!LO:TX:a:t=[con sord.]	!
4ryy	4ryy	4ryy	4ryy	4ryy	4ryy	8r	p	8r	p	8Re'/	p	8r	p	2ryy	4ryy
.	.	.	.	.	.	8f#'v	.	8f#'v	.	8rdd	.	8f#'	.	.	.
8ryy	.	8ryy	.	8ryy	.	4r	.	4r	.	8Rdd^/	.	4r	.	.	.
16ryy	.	16ryy	.	16ryy	.	.	.	.	.	8rdd	.	.	.	.	.
16ryy	.	16ryy	.	16ryy	.	.	.	.	.	.	.	.	.	.	.
!!LO:REH:t=71
=2	=2	=2	=2	=2	=2	=2	=2	=2	=2	=2	=2	=2	=2	=2	=2
8ryy	.	8ryy	.	8ryy	.	8r	.	8r	.	8Rb'/	.	8r	.	8ryy	.
8ryy	.	8ryy	.	8ryy	.	8c#'u	.	8c#'u	.	8Rdd^/	.	8c#'	.	8ryy	.
8ryy	.	8ryy	.	8ryy	.	4r	.	4r	.	8rdd	.	4r	.	8ryy	.
8ryy	.	8ryy	.	8ryy	.	.	.	.	.	8Rg'/	.	.	.	8ryy	.
=3	=3	=3	=3	=3	=3	=3	=3	=3	=3	=3	=3	=3	=3	=3	=3
4ryy	.	4ryy	.	4ryy	.	8r	.	8r	.	/8Rdd^	.	4r	.	4ryy	.
.	.	.	.	.	.	(16c#uLL	.	(16c#uLL	.	8rdd	.	.	.	.	.
.	.	.	.	.	.	16dnJJ	.	16dnJJ	.	.	.	.	.	.	.
8ryy	.	8ryy	.	8ryy	.	8e')	.	8e')	.	8Re'/	.	8e'	.	8ryy	.
.	.	.	.	.	.	.	.	.	.	.	.	.	.	.	.
8ryy	.	8ryy	.	8ryy	.	8r	.	8r	.	8rdd	.	8r	.	8ryy	.
=4	=4	=4	=4	=4	=4	=4	=4	=4	=4	=4	=4	=4	=4	=4	=4
4ryy	.	4ryy	.	4ryy	.	8r	.	8r	.	8Rdd^/	.	8r	.	2ryy	.
.	.	.	.	.	.	8f#'v	.	8f#'v	.	8rdd	.	8f#'	.	.	.
8ryy	.	8ryy	.	8ryy	.	4r	.	4r	.	8Rb'/	.	4r	.	.	.
16ryy	.	16ryy	.	16ryy	.	.	.	.	.	8Rdd^/	.	.	.	.	.
16ryy	.	16ryy	.	16ryy	.	.	.	.	.	.	.	.	.	.	.
=5	=5	=5	=5	=5	=5	=5	=5	=5	=5	=5	=5	=5	=5	=5	=5
16ryy	.	16ryy	.	16ryy	.	8r	.	8r	.	8rdd	.	8r	.	16ryy	.
16ryy	.	16ryy	.	16ryy	.	.	.	.	.	.	.	.	.	16ryy	.
8ryy	.	8ryy	.	8ryy	.	8c#'u	.	8c#'u	.	8Rg'/	.	8c#'	.	8ryy	.
4ryy	.	4ryy	.	4ryy	.	4r	.	4r	.	8Rdd^/	.	4r	.	4ryy	.
.	.	.	.	.	.	.	.	.	.	8rdd	.	.	.	.	.
=6	=6	=6	=6	=6	=6	=6	=6	=6	=6	=6	=6	=6	=6	=6	=6
8ryy	.	8ryy	.	8ryy	.	8r	.	8r	.	8Re'/	.	4r	.	8ryy	.
8ryy	.	8ryy	.	8ryy	.	(16c#LL	.	(16c#LL	.	8r^dd	.	.	.	8ryy	.
.	.	.	.	.	.	16dnJJ	.	16dnJJ	.	.	.	.	.	.	.
8ryy	.	8ryy	.	8ryy	.	16eLL	.	16eLL	.	8Rdd^/	.	(16eLL	.	4ryy	.
.	.	.	.	.	.	16f#'JJ)	.	16f#'JJ)	.	.	.	16f#'JJ)	.	.	.
16ryy	.	16ryy	.	16ryy	.	8r	.	8r	.	8rdd	.	8r	.	.	.
16ryy	.	16ryy	.	16ryy	.	.	.	.	.	.	.	.	.	.	.
=7	=7	=7	=7	=7	=7	=7	=7	=7	=7	=7	=7	=7	=7	=7	=7
8ryy	.	8ryy	.	8ryy	.	8r	.	8r	.	8Rb'/	.	8r	.	8ryy	.
8r'yy	.	8r'yy	.	8r'yy	.	8c#'	.	8c#'	.	8Rdd^/	.	8c#'	.	8ryy	.
8ryy	.	8ryy	.	8ryy	.	8r	.	8r	.	8rdd	.	4r	.	8ryy	.
8ryy	.	8ryy	.	8ryy	.	(16c#LL	.	(16c#LL	.	8Rg'/	.	.	.	8ryy	.
.	.	.	.	.	.	16dnJJ	.	16dnJJ	.	.	.	.	.	.	.
!	!	!	!	!	!	!LO:TX:t=P:problem:Hanging slur not shown yet	!	!LO:TX:t=P:problem:Hanging slur not shown yet	!	!	!	!	!	!	!
=	=	=	=	=	=	=	=	=	=	=	=	=	=	=	=
*-	*-	*-	*-	*-	*-	*-	*-	*-	*-	*-	*-	*-	*-	*-	*-
!!!system-decoration: [(s1,s2)][(s3)][(s4,s5,s6,s7,s8)]
!!!EED: Jason Lee
!!!EEV: Date 2021/09/10
